X: 201
T:Tolka Polka
M:2/2
L:1/8
C:Donal Lunny
R:Polka
Z:Robert Greenway
K:ADor
A3B c2g2|d2e2 c2A2|BcBA G2d2|A2B2 G2E2|!
A3B c2g2|d2e2 c2A2|BcBA G2d2|1 B2A2 edc2:|2 B2A2 A2z2|!
|:d3e f2a2|g2a2 f2d2|gedc B2dc|BAG2 BAGB|!
A3B c2g2|d2e2 c2A2|BcBA G2d2|B2A2 A2z2:|!
|:e3f g2f2|d2e2-efg2|f2d2 fgfe|d2c2 B2d2-|!
dcB2 c2g2|d2e2 c2A2|BcBA G2d2|1 B2A2 A2z2:|2 B2A2 edc2||!

